src/assets/icons/icon-login.svg

<svg width="23px" height="23px" viewBox="0 0 23 23" version="1.1" xmlns="http://www.w3.org/2000/svg"
     xmlns:xlink="http://www.w3.org/1999/xlink">
    <g id="Welcome" stroke="none" stroke-width="1" fill="none" fill-rule="evenodd">
        <g id="Home" transform="translate(-223.000000, -663.000000)" fill="#FFFFFF" fill-rule="nonzero">
            <g id="icon-close" transform="translate(223.000000, 663.000000)">
                <g id="icon-login">
                    <path d="M10.625,21.203125 L3.5714286,21.203125 C2.5867857,21.203125 1.7857143,20.397047 1.7857143,19.40625 L1.7857143,12.039062 C1.7857143,11.048266 2.5867857,10.242188 3.5714286,10.242188 L16.4285714,10.242188 C17.4132143,10.242188 18.2142857,11.048266 18.2142857,12.039062 L18.2142857,13.835938 C18.2142857,14.332145 18.6140179,14.734375 19.1071429,14.734375 C19.6002679,14.734375 20,14.332145 20,13.835938 L20,12.039062 C20,10.057469 18.3978571,8.445312 16.4285714,8.445312 L15.3554911,8.445312 L15.3554911,5.276793 C15.3554911,2.367158 12.9522768,0 9.9983482,0 C7.0444196,0 4.6412054,2.367158 4.6412054,5.276793 L4.6412054,8.445312 L3.5714286,8.445312 C1.6021429,8.445312 0,10.057469 0,12.039062 L0,19.40625 C0,21.387844 1.6021429,23 3.5714286,23 L10.625,23 C11.118125,23 11.5178571,22.59777 11.5178571,22.101562 C11.5178571,21.605355 11.118125,21.203125 10.625,21.203125 Z M7,5.663932 C7,3.643628 8.3458,2 10,2 C11.6542,2 13,3.643628 13,5.663932 L13,8 L7,8 L7,5.663932 Z M14,16 C13.4477153,16 13,15.552285 13,15 C13,14.447715 13.4477153,14 14,14 C14.5522847,14 15,14.447715 15,15 C15,15.552285 14.5522847,16 14,16 Z M22.5971005,14.177158 C23.0299863,14.481688 23.1296642,15.073506 22.8197853,15.49892 L18.0488838,22.048042 C18.0384243,22.062347 18.0276275,22.076321 18.016445,22.090058 C17.5832701,22.619728 16.9390747,22.949458 16.2491374,22.994647 C16.1945748,22.998247 16.1400122,23 16.0855942,23 C15.4522439,23 14.8366795,22.759986 14.3755484,22.328509 C14.3726082,22.325809 14.3697644,22.323062 14.3668724,22.320314 L11.2907372,19.370178 C10.9096666,19.004732 10.9022437,18.404956 11.2741081,18.030511 C11.6459243,17.656113 12.2562349,17.648676 12.6373055,18.014169 L15.7080422,20.959095 C15.8595354,21.098784 16.03161,21.109916 16.1209731,21.104089 C16.2081191,21.098405 16.3707464,21.066479 16.5005013,20.918595 L21.2521228,14.395999 C21.5619053,13.970538 22.1641665,13.872534 22.5971005,14.177158 Z M11,16 C10.4477153,16 10,15.552285 10,15 C10,14.447715 10.4477153,14 11,14 C11.5522847,14 12,14.447715 12,15 C12,15.552285 11.5522847,16 11,16 Z M5,16 C4.4477153,16 4,15.552285 4,15 C4,14.447715 4.4477153,14 5,14 C5.5522847,14 6,14.447715 6,15 C6,15.552285 5.5522847,16 5,16 Z M8,16 C7.4477153,16 7,15.552285 7,15 C7,14.447715 7.4477153,14 8,14 C8.5522847,14 9,14.447715 9,15 C9,15.552285 8.5522847,16 8,16 Z"
                          id="login"></path>
                </g>
            </g>
        </g>
    </g>
</svg>

<svg xmlns="http://www.w3.org/2000/svg" width="23" height="23">
    <path fill="#FFF" fill-rule="nonzero"
          d="M10.625 21.203H3.571a1.793 1.793 0 0 1-1.785-1.797V12.04c0-.99.8-1.797 1.785-1.797H16.43c.984 0 1.785.806 1.785 1.797v1.797c0 .496.4.898.893.898a.896.896 0 0 0 .893-.898v-1.797c0-1.982-1.602-3.594-3.571-3.594h-1.074V5.277C15.355 2.367 12.952 0 9.998 0S4.641 2.367 4.641 5.277v3.168h-1.07C1.602 8.445 0 10.057 0 12.04v7.367C0 21.388 1.602 23 3.571 23h7.054a.896.896 0 0 0 .893-.898c0-.497-.4-.899-.893-.899zM7 5.663C7 3.644 8.346 2 10 2s3 1.644 3 3.664V8H7V5.664zM14 16a1 1 0 1 1 0-2 1 1 0 0 1 0 2zm8.597-1.823a.937.937 0 0 1 .223 1.322l-4.771 6.549-.033.042a2.5 2.5 0 0 1-1.93.91c-.634 0-1.25-.24-1.71-.671l-.01-.009-3.075-2.95a.936.936 0 0 1-.017-1.34.976.976 0 0 1 1.363-.016l3.071 2.945c.152.14.324.15.413.145a.55.55 0 0 0 .38-.185l4.751-6.523a.975.975 0 0 1 1.345-.219zM11 16a1 1 0 1 1 0-2 1 1 0 0 1 0 2zm-6 0a1 1 0 1 1 0-2 1 1 0 0 1 0 2zm3 0a1 1 0 1 1 0-2 1 1 0 0 1 0 2z"/>
</svg>
